X:1
T:Jesus Walked This Lonesome Valley
T:Jesus Walked This Lonesome Valley
T:American Spiritual
T:Public Domain Courtesy of the Cyber Hymnal™
C:American Spiritual
Z:Public Domain
Z:Courtesy of the Cyber Hymnal™
%%score ( 1 2 ) 3
L:1/8
Q:1/4=105
M:4/4
K:F
V:1 treble 
V:2 treble 
V:3 bass 
V:1
 D[DF] | [CF]4- [CF][CA][CG][CF] | D [DF]3 z2 (3[DF][DF][DF] | [FA]4- [FA][FA][Fc][Fd] | %4
w: 1.~Je- sus|walked * this lone- some|val- ley. He had to|walk * it by Him-|
w: 2.~We must|walk * this lone- some|val- ley, We have to|walk * it by our-|
w: 3.~You must|go * and stand your|tri- al, You have to|stand * it by your-|
 [Ec]6 [Ec]2 | (3[_Ec][EA][EG] [EF]2- [EF][EA][EG][EF] | D [DF]3 z2 (3[DF][DF][DF] | %7
w: self; O,|no- bod- y else * could walk it|for Him, He had to|
w: selves; O,|no- bod- y else * can walk it|for us, We have to|
w: self, O,|no- bod- y else * can stand it|for you, You have to|
 C3 C (D F2) [B,F] | [CF]6 |] %9
w: walk it by * Him-|self.|
w: walk it by * our-|selves.|
w: stand it by * your-|self.|
V:2
 D x | x8 | D x7 | x8 | x8 | x8 | D x7 | C3 C B,3 x | x6 |] %9
V:3
 [F,B,][F,B,] | [F,A,]4- [F,A,][F,C][F,B,][F,A,] | [A,,B,] [B,,B,]3 z2 (3[B,,B,][B,,B,][B,,B,] | %3
 [F,C]4- [F,C][F,C][F,A,][F,A,] | [C,G,]6 [C,B,]2 | %5
 (3[F,A,][F,C][F,B,] [F,A,]2- [F,A,][F,C][F,B,][F,A,] | %6
 [B,,B,] [B,,B,]3 z2 (3[G,,B,][G,,B,][G,,B,] | [C,A,]3 [C,A,] [C,G,]3 [C,G,] | [F,,A,]6 |] %9

